X: 30269
T: Old Linen Mill, The
R: reel
M: 4/4
K: Fmajor
|:FD|CDFG Acdc|f2 ag fddf|cdfa gfdc|Acdc AGAc|
f3 a gfdc|AF ~F2 CFAF|GFDC A,C ~C2|DEFA GF:|
|:AB|cF ~F2 cFdF|cF ~F2 GFDF|GD ~D2 GABG|AGFA GABG|
AF ~F2 GFDF|CF ~F2 GFDA|GFDC A,C ~C2|DEFA GF:|
|:FD|CF ~F2 CFAc|dffe fgfd|cA ~A2 FAcd|cdfa gffe|
f3 d cA ~A2|FACA GFDC|A,C ~C2 B,D ~D2|CDFA GF:|F2|

